images_colibrex_svg/cmd/sc_searchdialog.svg

<svg viewBox="0 0 16 16" xmlns="http://www.w3.org/2000/svg"><path d="m10 1a5 5 0 0 0 -5 5 5 5 0 0 0 4.3105469 4.945312c.1498937-.40556.3477974-.78652.625-1.1074214.3191101-.3694175.7217741-.6644586 1.1699221-.859375a1.0001 1.0001 0 0 1  .142578-.0507812c.815788-.214841 1.683334-.1513301 2.521484.0996094v-2.0273438a1.0001 1.0001 0 0 1 1-1h .230469a5 5 0 0 0 -5-5z" fill="#fff"/><path d="m16 15.912256v-8.9122562h-1.230769v3.6539002c-.964076-.9644554-2.063378-1.0750016-3.265734-.7583571-.317017.1378831-.587414.3363511-.811189.5954041-.223776.259053-.39394.574512-.51049.946379-.121212.367688-.1818182.785515-.1818182 1.253481 0 .497215.067601.948468.2027972 1.353761.135198.405293.328671.754179.58042 1.046658.251748.288301.557109.511838.916084.670613.358974.158774.762238.238161 1.20979.238161s.822843-.07521 1.125874-.225626c.298369-.154597.564103-.367689.797203-.639277l.06993.545265c.01865.154596.118882.231894.3007.231894zm-3.013986-5.352368c.377622 0 .710955.07939 1 .238162.284382.158774.545455.384401.783217.67688v2.958218c-.214453.263231-.449883.449164-.706293.557799-.256411.104456-.538462.156685-.846154.156685-.629371 0-1.111889-.202646-1.447554-.607938-.335664-.405293-.503496-1.009054-.503496-1.811282 0-.743733.149184-1.291086.447553-1.642062.298368-.350974.722611-.526462 1.272727-.526462z" fill="#4d82b8"/><path d="m10 0a6 6 0 0 0 -6 6 6 6 0 0 0 1.4179688 3.875l-5.26562505 5.265625a.50005.50005 0 1 0  .70703125.707031l5.2714844-5.271484a6 6 0 0 0 2.9238281 1.339844c.037688-.269122.093789-.530544.1757813-.78125.020826-.06621.05617-.124766.080078-.189454a5 5 0 0 1 -4.3105468-4.945312 5 5 0 0 1 5-5 5 5 0 0 1 5 5h1a6 6 0 0 0 -6-6zm-.2109375 2c-.4928667 0-.9432108.0893332-1.3496094.2695312-.4020752.1755778-.778712.4442914-1.1289062.8046876l.2089843.3886718c.034587.064687.078562.1166191.1347657.1582032.056205.041584.1233509.0625.2011719.0625.099438-.0000002.1978544-.035448.2929687-.109375.099439-.073927.2155846-.1563519.3496094-.2441407.1340247-.087789.2910734-.16826.4726562-.2421875.1859058-.073927.4135904-.1113281.6816407-.1113281.4020752 0 .7065402.1343569.9140622.4023437.211848.2633666.31836.6588141.31836 1.1855469v.5195313c-.717684.0184818-1.3235398.0900912-1.8164066.2148437-.4928662.1201321-.8922583.2766452-1.1992188.4707031-.3069609.1940594-.5296207.4165107-.6679687.6660157-.1340253.244885-.2011719.5015447-.2011719.7695312 0 .3049507.0459278.5704722.1367188.796875.0951148.2217824.2228473.4080723.3828124.5605469.1642891.1478556.3526075.2600577.5644532.3339844.2161695.0693073.446926.1035156.6933594.1035156.2377861 0 .4554206-.0221594.6542968-.0683594.1988759-.041584.3856582-.1075235.5585938-.1953125.1729356-.0877888.3365446-.1936069.4921876-.3183593.159965-.1293732.322039-.275784.486328-.4375l.142578.6308593c.02162.1155156.06252.1915556.123047.2285157.05276.032219.134305.044461.226563.048828.178077-.0362541.35762-.0623152.539062-.0742187v-4.25c0-.3834984-.048999-.7326835-.148438-1.046875-.095113-.3141915-.23597-.584144-.421874-.8105469-.185907-.2264025-.416663-.3993991-.69336-.5195312-.276697-.1247525-.592748-.1875-.9472655-.1875zm1.0957035 3.8457031v1.4003907c-.125379.1386145-.253111.2653484-.382813.3808593-.125378.1108915-.259672.206608-.402344.2851563-.1426716.073925-.2931592.1322428-.4531246.1738281-.1599654.041585-.3351612.0625-.5253906.0625-.1426716 0-.2769657-.019681-.4023438-.056641-.1253791-.0415838-.2334276-.1011398-.3242188-.1796871-.0907911-.0831688-.1644991-.1877476-.2207031-.3125-.0518806-.129373-.078125-.2814535-.078125-.4570313 0-.1848182.050952-.3501917.1503907-.4980469.0994374-.1524749.2580222-.2855929.4785156-.3964843.2248157-.1108909.5146224-.1989851.8691406-.2636719.3545182-.0693069.785178-.1155697 1.291016-.1386719z" fill="#808080"/></svg>

<?xml version="1.0" encoding="UTF-8" standalone="no"?>
<svg
   xmlns:dc="http://purl.org/dc/elements/1.1/"
   xmlns:cc="http://creativecommons.org/ns#"
   xmlns:rdf="http://www.w3.org/1999/02/22-rdf-syntax-ns#"
   xmlns:svg="http://www.w3.org/2000/svg"
   xmlns="http://www.w3.org/2000/svg"
   xmlns:sodipodi="http://sodipodi.sourceforge.net/DTD/sodipodi-0.dtd"
   xmlns:inkscape="http://www.inkscape.org/namespaces/inkscape"
   viewBox="0 0 16 16"
   version="1.1"
   id="svg8"
   sodipodi:docname="sc_searchdialog.svg"
   inkscape:version="0.92.3 (unknown)">
  <metadata
     id="metadata14">
    <rdf:RDF>
      <cc:Work
         rdf:about="">
        <dc:format>image/svg+xml</dc:format>
        <dc:type
           rdf:resource="http://purl.org/dc/dcmitype/StillImage" />
      </cc:Work>
    </rdf:RDF>
  </metadata>
  <defs
     id="defs12" />
  <sodipodi:namedview
     pagecolor="#ffffff"
     bordercolor="#666666"
     borderopacity="1"
     objecttolerance="10"
     gridtolerance="10"
     guidetolerance="10"
     inkscape:pageopacity="0"
     inkscape:pageshadow="2"
     inkscape:window-width="1366"
     inkscape:window-height="706"
     id="namedview10"
     showgrid="true"
     inkscape:zoom="29.5"
     inkscape:cx="6.8860004"
     inkscape:cy="7.7969562"
     inkscape:window-x="0"
     inkscape:window-y="0"
     inkscape:window-maximized="1"
     inkscape:current-layer="svg8">
    <inkscape:grid
       type="xygrid"
       id="grid821" />
  </sodipodi:namedview>
  <path
     d="m10 1a5 5 0 0 0 -5 5 5 5 0 0 0 4.3105469 4.945312c.1498937-.40556.3477974-.78652.625-1.1074214.3191101-.3694175.7217741-.6644586 1.1699221-.859375a1.0001 1.0001 0 0 1  .142578-.0507812c.815788-.214841 1.683334-.1513301 2.521484.0996094v-2.0273438a1.0001 1.0001 0 0 1 1-1h .230469a5 5 0 0 0 -5-5z"
     fill="#fff"
     id="path2" />
  <path
     d="m16 15.912256v-8.9122562h-1.230769v3.6539002c-.964076-.9644554-2.063378-1.0750016-3.265734-.7583571-.317017.1378831-.587414.3363511-.811189.5954041-.223776.259053-.39394.574512-.51049.946379-.121212.367688-.1818182.785515-.1818182 1.253481 0 .497215.067601.948468.2027972 1.353761.135198.405293.328671.754179.58042 1.046658.251748.288301.557109.511838.916084.670613.358974.158774.762238.238161 1.20979.238161s.822843-.07521 1.125874-.225626c.298369-.154597.564103-.367689.797203-.639277l.06993.545265c.01865.154596.118882.231894.3007.231894zm-3.013986-5.352368c.377622 0 .710955.07939 1 .238162.284382.158774.545455.384401.783217.67688v2.958218c-.214453.263231-.449883.449164-.706293.557799-.256411.104456-.538462.156685-.846154.156685-.629371 0-1.111889-.202646-1.447554-.607938-.335664-.405293-.503496-1.009054-.503496-1.811282 0-.743733.149184-1.291086.447553-1.642062.298368-.350974.722611-.526462 1.272727-.526462z"
     fill="#4d82b8"
     id="path4"
     style="fill:#0a84ff;fill-opacity:1" />
  <path
     d="M 10,0 C 6.6862915,0 4,2.6862915 4,6 3.9996755,7.418684 4.5020599,8.791591 5.4179688,9.875 l 0.7128906,0.701172 c 0.834518,0.704372 1.8454487,1.16763 2.9238281,1.339844 0.037688,-0.269122 0.093789,-0.530544 0.1757813,-0.78125 0.020826,-0.06621 0.05617,-0.124766 0.080078,-0.189454 C 6.8419602,10.601636 5.0034524,8.4923925 5,6 5,3.2385763 7.2385763,1 10,1 c 2.761424,0 5,2.2385763 5,5 h 1 C 16,2.6862915 13.313708,0 10,0 Z M 9.7890625,2 C 9.2961958,2 8.8458517,2.0893332 8.4394531,2.2695312 8.0373779,2.445109 7.6607411,2.7138226 7.3105469,3.0742188 l 0.2089843,0.3886718 c 0.034587,0.064687 0.078562,0.1166191 0.1347657,0.1582032 0.056205,0.041584 0.1233509,0.0625 0.2011719,0.0625 0.099438,-2e-7 0.1978544,-0.035448 0.2929687,-0.109375 0.099439,-0.073927 0.2155846,-0.1563519 0.3496094,-0.2441407 0.1340247,-0.087789 0.2910734,-0.16826 0.4726562,-0.2421875 0.1859058,-0.073927 0.4135904,-0.1113281 0.6816407,-0.1113281 0.4020752,0 0.7065402,0.1343569 0.9140622,0.4023437 0.211848,0.2633666 0.31836,0.6588141 0.31836,1.1855469 V 5.0839844 C 10.167082,5.1024662 9.5612262,5.1740756 9.0683594,5.2988281 8.5754932,5.4189602 8.1761011,5.5754733 7.8691406,5.7695312 7.5621797,5.9635906 7.3395199,6.1860419 7.2011719,6.4355469 7.0671466,6.6804319 7,6.9370916 7,7.2050781 7,7.5100288 7.0459278,7.7755503 7.1367188,8.0019531 7.2318336,8.2237355 7.3595661,8.4100254 7.5195312,8.5625 7.6838203,8.7103556 7.8721387,8.8225577 8.0839844,8.8964844 8.3001539,8.9657917 8.5309104,9 8.7773438,9 9.0151299,9 9.2327644,8.9778406 9.4316406,8.9316406 9.6305165,8.8900566 9.8172988,8.8241171 9.9902344,8.7363281 10.16317,8.6485393 10.326779,8.5427212 10.482422,8.4179688 c 0.159965,-0.1293732 0.322039,-0.275784 0.486328,-0.4375 l 0.142578,0.6308593 c 0.02162,0.1155156 0.06252,0.1915556 0.123047,0.2285157 0.05276,0.032219 0.134305,0.044461 0.226563,0.048828 C 11.639015,8.8524177 11.818558,8.8263566 12,8.8144531 v -4.25 C 12,4.1809547 11.951001,3.8317696 11.851562,3.5175781 11.756449,3.2033866 11.615592,2.9334341 11.429688,2.7070312 11.243781,2.4806287 11.013025,2.3076321 10.736328,2.1875 10.459631,2.0627475 10.14358,2 9.7890625,2 Z m 1.0957035,3.8457031 v 1.4003907 c -0.125379,0.1386145 -0.253111,0.2653484 -0.382813,0.3808593 -0.125378,0.1108915 -0.259672,0.206608 -0.402344,0.2851563 -0.1426716,0.073925 -0.2931592,0.1322428 -0.4531246,0.1738281 -0.1599654,0.041585 -0.3351612,0.0625 -0.5253906,0.0625 -0.1426716,0 -0.2769657,-0.019681 -0.4023438,-0.056641 C 8.5933709,8.0502127 8.4853224,7.9906567 8.3945312,7.9121094 8.3037401,7.8289406 8.2300321,7.7243618 8.1738281,7.5996094 8.1219475,7.4702364 8.0957031,7.3181559 8.0957031,7.1425781 c 0,-0.1848182 0.050952,-0.3501917 0.1503907,-0.4980469 C 8.3455312,6.4920563 8.504116,6.3589383 8.7246094,6.2480469 8.9494251,6.137156 9.2392318,6.0490618 9.59375,5.984375 9.9482682,5.9150681 10.378928,5.8688053 10.884766,5.8457031 Z"
     id="path6"
     style="fill:#69696e;fill-opacity:1;stroke:none"
     inkscape:connector-curvature="0"
     sodipodi:nodetypes="scccccccsccssccccccccscsccccscccscsccccccscccscccccscccscccc" />
  <rect
     style="opacity:1;fill:#616165;fill-opacity:1;stroke:none;stroke-width:1;stroke-linecap:round;stroke-linejoin:round;stroke-miterlimit:4;stroke-dasharray:none;stroke-opacity:1"
     id="rect823"
     width="2"
     height="7"
     x="-12.606602"
     y="-9.1213207"
     rx="0.56854504"
     ry="0.56854504"
     transform="rotate(-135)" />
</svg>
